X: 3
T: Dever The Dancer
R: slip jig
M: 9/8
L: 1/8
K: Edor
|: BEE BEF G2 A | BEE BAG FGA | BEE BEF G2 A | Bcd A2 G FED :||: ded =cAF G3 | Add def gfe |[1 ded =cAF G2 A | Bcd A2 G FED :|[2 afd gec d2 A | Bcd ABG FED ||


Tune 148	Setting 26009

